frontend/public/svg/misc/ship.svg

<svg width="150" height="144" viewBox="0 0 150 144" fill="none" xmlns="http://www.w3.org/2000/svg">
<path d="M28.0609 106.699C26.7856 103.398 25.574 99.6762 23.9371 96.1497C20.996 89.816 17.797 83.6025 14.7142 77.3352C14.2331 76.3572 13.7468 75.3766 13.3451 74.3652C11.4122 69.4972 13.2315 66.9137 18.4488 66.5121C29.5507 65.6588 40.6389 64.6087 51.7323 63.6393C55.7504 63.2875 59.7685 62.9305 64.1936 62.5406C64.2625 61.1623 64.3905 59.9028 64.378 58.6452C64.1977 41.6015 64.0061 24.5585 63.803 7.5165C63.7932 6.64226 63.7991 5.76802 63.8083 4.89115C63.828 2.95167 64.1522 1.16381 66.2125 0.296783C68.1592 -0.524296 69.586 0.493724 70.9158 1.70007C79.667 9.6177 88.4124 17.5404 97.1522 25.468C100.07 28.1039 103.009 30.7187 106.006 33.2621C109.353 36.1027 109.344 39.196 105.486 41.3875C102.45 43.1083 99.2268 44.4737 95.8789 45.4568C87.5185 47.899 79.0649 50.0236 70.1741 52.4028C70.0488 55.0518 69.8905 58.3755 69.7258 61.8482C73.3862 61.8482 76.9495 61.9316 80.5075 61.8331C93.9405 61.4616 107.372 61.0555 120.801 60.6149C123.859 60.5184 126.913 60.2946 129.97 60.2152C135.399 60.0747 137.324 62.6108 135.721 67.878C132.417 78.7298 129.049 89.5614 125.713 100.403C125.461 101.22 125.253 102.05 124.922 103.249C132.02 102.43 137.246 105.714 142.151 109.975C143.503 111.15 145.464 111.597 146.98 112.622C147.875 113.227 149.085 114.374 149.007 115.163C148.904 116.213 147.778 117.869 146.92 117.985C144.941 118.306 142.913 118.097 141.041 117.38C139.006 116.476 137.332 114.738 135.556 113.294C129.83 108.634 125.929 108.717 120.558 113.648C118.949 115.126 117.387 116.667 115.704 118.053C110.94 121.986 105.162 122.67 99.8806 119.485C97.1316 117.729 94.604 115.649 92.3524 113.289C89.4074 110.342 87.4016 109.405 83.6474 111.264C80.4334 112.852 77.4606 114.888 74.8177 117.31C64.7042 126.663 53.6528 127.044 43.1291 118.092C41.9365 117.134 40.8041 116.104 39.7384 115.007C37.287 112.337 34.4004 112.015 31.4305 113.688C28.494 115.34 25.8345 117.478 22.946 119.226C19.048 121.583 15.2012 124.141 11.0282 125.884C8.8026 126.814 5.90025 126.495 3.38057 126.159C2.46497 126.037 1.14379 124.243 1.12344 123.19C1.09063 121.507 2.83386 121.674 4.17082 121.696C7.97758 121.761 11.1418 120.062 14.0303 117.823C18.5886 114.289 23.0727 110.661 28.0609 106.699ZM35.0292 105.711C39.2245 105.386 42.6309 108.016 45.7176 111.285C46.1672 111.761 46.6759 112.18 47.1616 112.622C55.0783 119.853 62.2449 119.627 70.2824 112.437C73.4217 109.583 76.9765 107.222 80.8251 105.437C87.2573 102.553 92.208 104.105 97.0649 109.161C98.895 111.019 100.945 112.647 103.169 114.009C105.63 115.551 108.2 115.117 110.507 113.367C112.814 111.616 114.763 109.742 115.068 106.544C115.239 104.741 116.052 102.986 116.678 101.244C118.628 95.8006 120.736 90.414 122.571 84.9322C124.566 78.9727 126.324 72.9337 128.215 66.8357C92.3669 66.6827 56.8636 68.2757 21.4345 73.0328L35.0292 105.711ZM71.4257 10.3158L70.4813 10.7319V44.5635L99.9778 36.5851C90.0191 27.422 80.7221 18.8692 71.4257 10.3178V10.3158Z" fill="black"/>
<path d="M8.47029 143.226C6.561 142.832 4.54143 142.695 2.78966 141.937C1.87538 141.543 1.43237 140.057 0.777344 139.063C1.72247 138.507 2.70698 137.415 3.60748 137.48C11.0241 138.016 16.9311 134.867 22.3577 130.295C24.0092 128.865 25.7657 127.56 27.6124 126.392C33.1853 122.979 38.7951 123.172 44.2788 126.644C45.6361 127.56 46.938 128.556 48.1774 129.627C51.5018 132.333 55.5086 134.069 59.7565 134.645C64.4041 135.315 68.4858 134.564 71.8942 130.701C74.3886 127.971 77.2473 125.597 80.3898 123.646C84.7151 120.879 89.3068 121.112 93.6629 123.936C94.9533 124.754 96.1998 125.64 97.3975 126.589C100.805 129.345 104.775 130.743 109 131.587C110.332 131.891 111.717 131.879 113.044 131.554C114.371 131.228 115.604 130.596 116.644 129.71C123.485 124.236 130.805 122.926 138.879 127.14C140.848 128.167 143.258 128.375 145.485 128.869C147.223 129.254 148.694 129.985 148.856 131.904C149.028 133.933 147.727 135.281 145.922 135.723C144.237 136.087 142.505 136.19 140.789 136.028C139.584 135.932 138.421 135.546 137.398 134.902C131.438 131.045 126.28 132.71 121.284 136.872C119.856 138.07 118.185 138.943 116.385 139.43C114.586 139.918 112.702 140.007 110.865 139.694C104.236 138.767 98.2159 136.551 93.0191 132.187C88.4903 128.385 86.5069 128.428 81.8167 132.101C80.7755 132.898 79.8287 133.811 78.9944 134.822C73.6164 141.526 66.4722 142.632 58.5823 141.297C53.3849 140.425 48.4999 138.229 44.3989 134.92C43.375 134.103 42.3379 133.295 41.2524 132.564C38.6881 130.837 35.936 130.472 33.2175 132.039C30.8625 133.397 28.6612 135.022 26.3949 136.533C20.9663 140.149 15.2942 143.083 8.47029 143.226Z" fill="black"/>
</svg>

<svg xmlns="http://www.w3.org/2000/svg" width="150" height="144" fill="none" viewBox="0 0 150 144"><path fill="#000" d="M28.06 106.699c-1.274-3.301-2.486-7.023-4.123-10.55-2.941-6.333-6.14-12.546-9.223-18.814-.48-.978-.967-1.958-1.369-2.97-1.933-4.868-.114-7.451 5.104-7.853 11.102-.853 22.19-1.903 33.283-2.873 4.018-.352 8.037-.709 12.462-1.098.069-1.379.197-2.638.184-3.896q-.27-25.565-.575-51.128c-.01-.875-.004-1.749.005-2.626.02-1.94.344-3.727 2.405-4.594 1.946-.821 3.373.197 4.703 1.403q13.126 11.877 26.236 23.768c2.918 2.636 5.857 5.25 8.854 7.794 3.347 2.84 3.338 5.934-.52 8.126a45.5 45.5 0 0 1-9.607 4.069c-8.36 2.442-16.814 4.567-25.705 6.946l-.448 9.445c3.66 0 7.224.084 10.781-.015q20.15-.556 40.294-1.218c3.058-.097 6.112-.32 9.169-.4 5.429-.14 7.354 2.396 5.751 7.663-3.304 10.852-6.672 21.683-10.008 32.525-.252.817-.46 1.647-.791 2.846 7.098-.819 12.324 2.465 17.229 6.726 1.352 1.175 3.313 1.622 4.829 2.647.895.605 2.105 1.752 2.027 2.541-.103 1.05-1.229 2.706-2.087 2.822a11.35 11.35 0 0 1-5.879-.605c-2.035-.904-3.709-2.642-5.485-4.086-5.726-4.66-9.627-4.577-14.998.354-1.609 1.478-3.171 3.019-4.854 4.405-4.764 3.933-10.542 4.617-15.823 1.432a40.7 40.7 0 0 1-7.529-6.196c-2.945-2.947-4.95-3.884-8.705-2.025a38 38 0 0 0-8.83 6.046c-10.113 9.353-21.164 9.734-31.688.782a37 37 0 0 1-3.39-3.085c-2.452-2.67-5.339-2.992-8.308-1.319-2.937 1.652-5.597 3.79-8.485 5.538-3.898 2.357-7.745 4.915-11.918 6.658-2.225.93-5.128.611-7.647.275-.916-.122-2.237-1.916-2.258-2.969-.032-1.683 1.71-1.516 3.048-1.494 3.807.065 6.97-1.634 9.86-3.873 4.558-3.534 9.042-7.162 14.03-11.124m6.97-.988c4.194-.325 7.6 2.305 10.688 5.574.45.476.958.895 1.444 1.337 7.916 7.231 15.083 7.005 23.12-.185a41.9 41.9 0 0 1 10.543-7c6.432-2.884 11.383-1.332 16.24 3.724a32 32 0 0 0 6.104 4.848c2.461 1.542 5.031 1.108 7.338-.642s4.256-3.625 4.561-6.823c.171-1.803.984-3.558 1.61-5.3 1.95-5.443 4.058-10.83 5.893-16.312 1.995-5.96 3.753-11.998 5.644-18.096-35.848-.153-71.351 1.44-106.78 6.197zm36.396-95.395-.945.416v33.831l29.497-7.978-28.552-26.267z"/><path fill="#000" d="M8.47 143.226c-1.909-.394-3.929-.531-5.68-1.289-.915-.394-1.358-1.88-2.013-2.874.945-.556 1.93-1.648 2.83-1.583 7.417.536 13.324-2.613 18.75-7.185a44 44 0 0 1 5.255-3.903c5.573-3.413 11.183-3.22 16.667.252a41 41 0 0 1 3.898 2.983 23.3 23.3 0 0 0 11.58 5.018c4.647.67 8.729-.081 12.137-3.944a40.3 40.3 0 0 1 8.496-7.055c4.325-2.767 8.917-2.534 13.273.29a44 44 0 0 1 3.734 2.653c3.408 2.756 7.378 4.154 11.603 4.998a8.8 8.8 0 0 0 4.044-.033 8.8 8.8 0 0 0 3.6-1.844c6.841-5.474 14.161-6.784 22.235-2.57 1.969 1.027 4.379 1.235 6.606 1.729 1.738.385 3.209 1.116 3.371 3.035.172 2.029-1.129 3.377-2.934 3.819a16.8 16.8 0 0 1-5.133.305 7.5 7.5 0 0 1-3.391-1.126c-5.96-3.857-11.118-2.192-16.114 1.97a12.84 12.84 0 0 1-10.419 2.822c-6.629-.927-12.65-3.143-17.846-7.507-4.529-3.802-6.512-3.759-11.202-.086a17.3 17.3 0 0 0-2.823 2.721c-5.378 6.704-12.522 7.81-20.412 6.475A30.67 30.67 0 0 1 44.4 134.92c-1.024-.817-2.061-1.625-3.147-2.356-2.564-1.727-5.316-2.092-8.035-.525-2.354 1.358-4.556 2.983-6.822 4.494-5.429 3.616-11.1 6.55-17.925 6.693"/></svg>
